!! Georg Philipp Telemann (1681-1767)
!! Fantasy No. 7 from "Clavier Fantasies" from "Kleine Fantasien"
!! published by Edition Schott, edited by Erich Doflein, pp.14-15
!! Allegro
**kern	**kern
*M4/4	*M4/4
*k[f#c#g#]	*k[f#c#g#]
*A:	*A:
=1	=1
2r	12a
.	12e
.	12a
.	12a
.	12e
.	12a
4C# 4A	4a
4E 4G#	4b
=2	=2
2r	12b
.	12e
.	12b
.	12b
.	12e
.	12b
4E 4G#	4b
4AA 4A	4cc#
=3	=3
12C#	12ee
12E	12cc#
12A	12a
12D	12ff#
12F#	12dd
12A	12a
12C#	12ee
12E	12cc#
12A	12a
12D	12ff#
12F#	12dd
12A	12a
=4	=4
6C#	12ee
.	12dd
12A	12cc#
6BB	12dd
.	12cc#
12G#	12b
4AA	12cc#
.	12b
.	12cc#
6C#	12a
.	12cc#
12E	12b
=5	=5
12A	4cc#
12c#	.
12e	.
12F#	6aa
12A	.
12d	12cc#
4G#	4cc#t
4r	12b
.	12cc#
.	12a#
=6	=6
12G#	4b
12B	.
12d	.
12E#	6gg#
12G#	.
12c#	12b
4F#	12b
.	12a
.	12g#
4r	12a
.	12f#
.	12g#
=7	=7
12F#	4a
12A	.
12c#	.
12D#	6ff#
12F#	.
12B	12a
4E	4aT
6r	6g#
12F#	12a
=8	=8
4G#	12b
.	12g#
.	12e
4A	12cc#
.	12b
.	12a
4B	12dd#
.	12b
.	12g#
4c#	12ee
.	12dd#
.	12cc#
=9	=9
4d#	12ff#
.	12dd#
.	12b
4e	12gg#
.	12ff#
.	12ee
4B	12ff#
.	12dd#
.	12b
!! Apostrophe.
4g#	12bb
.	12b
.	12bb
=10	=10
4d#	12aa
.	12b
.	12aa
4E	12gg#
.	12b
.	12gg#
4B 4d#	12ff#
.	12b
.	12ff#
!! Apostrophe.
4G#	12bb
.	12b
.	12bb
=11	=11
4D#	12aa
.	12b
.	12aa
4E	12gg#
.	12b
.	12gg#
4BB 4D#	12ff#
.	12b
.	12cc#
4r 4An	12dd#
.	12cc#
.	12b
=12	=12
4C# 4G#	12ee
.	12dd#
.	12ee
12GG#	4e
12BB	.
12E	.
12AA	4f#
12C#	.
12E	.
12BB	4g#
12D#	.
12E	.
=13	=13
12C#	4a
12D#	.
12E	.
!! Apostrophe.
12GG#	4ee
12BB	.
12E	.
12AA	4ff#
12C#	.
12E	.
12BB	4gg#
12D#	.
12E	.
=14	=14
12C#	[4aa
12D#	.
12E	.
4D#	12aa]
.	12gg#
.	12ff#
12E	[4gg#
12F#	.
12G#	.
4BB	12gg#]
.	12ff#
.	12ee
=15	=15
12C#	[4aa
12D#	.
12E	.
4D#	12aa]
.	12gg#
.	12ff#
6E	12gg#
.	12ff#
12F#	12ee
6G#	6bb
12A	12ee
=16	=16
4B	4b
4B	4ff#T
4E	12ee
.	12b
.	12a
4r	12g#
.	12a
.	12b
=17	=17
12r	4e
12B	.
12A	.
12G#	4r
12A	.
12B	.
4E#	6r
.	12dd
4r	6cc#
.	12b
=18	=18
4F#	6a
.	6f#
.	6g#
4r	6a
.	6g#
.	6f#
4E#	6r
.	12dd
4r	6cc#
.	12b
=19	=19
4F#	12a
.	12f#
.	12g#
4r	12a
.	12g#
.	12f#
4En	12cc#
.	12a#
.	12b
4r	12cc#
.	12b
.	12a#
=20	=20
4D	12b
.	12f#
.	12b
4r	12b
.	12f#
.	12b
4D 4B	4b
4F# 4A#	4cc#
=21	=21
2r	12cc#
.	12f#
.	12cc#
.	12cc#
.	12f#
.	12cc#
4F# 4A#	4cc#
4BB 4B	4dd
=22	=22
12D	12ff#
12F#	12dd
12B	12b
12E	12ggn
12Gn	12ee
12B	12b
12D	12ff#
12F#	12dd
12B	12b
12E	12gg
12G	12ee
12B	12b
=23	=23
6D	12ff#
.	12ee
12B	12dd
6C#	12ee
.	12dd
12A#	12cc#
6BB	12dd
.	12cc#
12C#	12b
6D	6bb
12E	12b
=24	=24
4F#	4f#
4FF#	4cc#t
4BB	12b
.	12f#
.	12e
4r	12d
.	12e
.	12f#
=25	=25
12r	4B
12F#	.
12E	.
12D	4r
12E	.
12F#	.
4BB#	6r
.	12a
4r	6g#
.	12f#
=26	=26
4C#	12e
.	12g#
.	12cc#
4r	12a
.	12g#
.	12a
4BB#	6r
.	12a
4r	6g#
.	12f#
=27	=27
4C#	12e
.	12g#
.	12cc#
4r	12a
.	12g#
.	12a
4A	12f#
.	12a
.	12cc#
4r	12a
.	12g#
.	12a
=28	=28
4E	12g#
.	12b#
.	12cc#
4F#	12a
.	12g#
.	12a
12D#	4ff#
12F#	.
12E	.
12D#	4f#
12E	.
12F#	.
=29	=29
4BB#	12r
.	12gg#
.	12ff#
6r	12ee
.	12ff#
12BB#	12dd#
6C#	12ee
.	12dd#
12D#	12cc#
6E	6gg#
12F#	12ff#
=30	=30
4G#	4cc# 4ee
4GG#	4b# 4dd#t
12C#	4cc# 4cc#
12E	.
12D#	.
12E	4r
12F#	.
12G#	.
=31	=31
2r	12a
.	12e
.	12a
.	12a
.	12e
.	12a
4C# 4A	4a
4E 4G#	4b
=32	=32
2r	12b
.	12e
.	12b
.	12b
.	12e
.	12b
4E 4G#	4b
4AA 4A	4cc#
=33	=33
12C#	12ee
12E	12cc#
12A	12a
12D	12ff#
12F#	12dd
12A	12a
12C#	12ee
12E	12cc#
12A	12a
12D	12ff#
12F#	12dd
12A	12a
=34	=34
6C#	12ee
.	12dd
12A	12cc#
6BB	12dd
.	12cc#
12G#	12b
4AA	12cc#
.	12b
.	12cc#
4r	12a
.	12g#
.	12a
=35	=35
12C#	4ee
12E	.
12A	.
12C#	4gn
12E	.
12A	.
12D	4f#
12F#	.
12A	.
12D	4r
12F#	.
12A	.
=36	=36
12D#	4ff#
12F#	.
12B	.
12D#	4a
12F#	.
12B	.
12E	4g#
12G#	.
12B	.
12E	4r
12G#	.
12B	.
=37	=37
12GG#	4b
12BB	.
12E	.
12GG#	4d
12BB	.
12E	.
4AA	12c#
.	12B
.	12A
4BB	12d
.	12c#
.	12B
=38	=38
4C#	12e
.	12c#
.	12A
4D	12f#
.	12e
.	12d
4E	12g#
.	12e
.	12c#
4F#	12a
.	12g#
.	12f#
=39	=39
4G#	12b
.	12g#
.	12e
4A	12cc#
.	12b
.	12a
4E	12b
.	12g#
.	12e
!! Apostrophe.
4c#	12ee
.	12e
.	12ee
=40	=40
4G#	12dd
.	12e
.	12dd
4A	12cc#
.	12e
.	12cc#
4E 4G#	12b
.	12e
.	12b
!! Apostrophe.
4c#	12ee
.	12e
.	12ee
=41	=41
4G#	12dd
.	12e
.	12dd
4A	12cc#
.	12e
.	12cc#
4E 4G#	12b
.	12e
.	12f#
4d	12g#
.	12f#
.	12e
=42	=42
4F# 4c#	12a
.	12g#
.	12a
12C#	4aa
12E	.
12A	.
12D	4b
12F#	.
12A	.
12E	4cc#
12G#	.
12A	.
=43	=43
12F#	4dd
12G#	.
12A	.
12C#	4aa
12E	.
12A	.
12D	4b
12F#	.
12A	.
12E	4cc#
12G#	.
12A	.
=44	=44
12F#	[4dd
12G#	.
12A	.
4G#	12dd]
.	12cc#
.	12b
12A	[4cc#
12B	.
12c#	.
4E	12cc#]
.	12b
.	12a
=45	=45
12F#	[4dd
12G#	.
12A	.
4G#	12dd]
.	12cc#
.	12b
6AA	12cc#
.	12b
12BB	12a
6C#	6ee
12D	12dd
=46	=46
4E	4a 4cc#
4EE	4g# 4bT
4AA	12a
.	12cc#
.	12b
4r	12cc#
.	12b
.	12a
=47	=47
12F#	4dd
12G#	.
12A	.
12C#	4aa
12E	.
12A	.
12D	4b
12F#	.
12A	.
12E	4cc#
12G#	.
12A	.
=48	=48
12F#	[4dd
12G#	.
12A	.
4G#	12dd]
.	12cc#
.	12b
12A	[4cc#
12B	.
12c#	.
4E	12cc#]
.	12b
.	12a
=49	=49
12F#	[4dd
12G#	.
12A	.
4G#	12dd]
.	12cc#
.	12b
6AA	12cc#
.	12b
12BB	12a
6C#	6ee
12D	12dd
=50	=50
4E	4a 4cc#
4EE	4g# 4bT
4A	4a 4a
4r	4r
==	==
*-	*-
